assets/icons/qvision/how_to_vote.svg

<svg width="24" height="24" viewBox="0 0 24 24" fill="none" xmlns="http://www.w3.org/2000/svg">
<g clip-path="url(#clip0_147_2167)">
<path d="M18 13H17.32L15.32 15H17.23L19 17H5L6.78 15H8.83L6.83 13H6L3 16V20C3 21.1 3.89 22 4.99 22H19C20.1 22 21 21.11 21 20V16L18 13ZM17 7.94998L12.05 12.9L8.51 9.35998L13.46 4.40998L17 7.94998ZM12.76 2.28998L6.39 8.65998C6 9.04998 6 9.67998 6.39 10.07L11.34 15.02C11.73 15.41 12.36 15.41 12.75 15.02L19.11 8.65998C19.5 8.26998 19.5 7.63998 19.11 7.24998L14.16 2.29998C13.78 1.89998 13.15 1.89998 12.76 2.28998Z" fill="#323232"/>
</g>
<defs>
<clipPath id="clip0_147_2167">
<rect width="24" height="24" fill="white"/>
</clipPath>
</defs>
</svg>

<svg xmlns="http://www.w3.org/2000/svg" height="24" viewBox="0 0 24 24" width="24"><path d="M0 0h24v24H0V0z" fill="none"/><path d="M18 13h-.68l-2 2h1.91L19 17H5l1.78-2h2.05l-2-2H6l-3 3v4c0 1.1.89 2 1.99 2H19c1.1 0 2-.89 2-2v-4l-3-3zm-1-5.05l-4.95 4.95-3.54-3.54 4.95-4.95L17 7.95zm-4.24-5.66L6.39 8.66c-.39.39-.39 1.02 0 1.41l4.95 4.95c.39.39 1.02.39 1.41 0l6.36-6.36c.39-.39.39-1.02 0-1.41L14.16 2.3c-.38-.4-1.01-.4-1.4-.01z"/></svg>
